X:1190
T:(untitled)
C:John Malchair's Third Collection of Tunes
F:https://www.vwml.org/record/Malchair/3619/p119
F:www.vwml.org/topics/historic-dance-and-tune-books/Malchair
Z:Eric Conrad Feb 2020
N:NB1 Repeats added.
W:From a hand organ in the Street, Oxon.
W:Nov.21.1794
M:2/4
L:1/16
K:Bb
P:A
|: "_NB1"F2 | BABc d2d2 | BABc d2d2 | {f/}e2de c2c2 | {f/}e2de c2c2 |
BABc d2d2 | BABc d2d2 | fede c2d2 | B4 B2 :|
P:B
|: de | fede f2f2 | b4 g4 | {f/}e2de c2c2 | {f/}e2de c2c2 |
fede f2f2 | b4 g4 | fede c2d2 | B4 B2 :|


